X: 3210
T: THERE GROWS A BONNIE BRIER
Q: "Highland Schottische."
R: Schottische.
%R: shottish
B: James Kerr "Merry Melodies" v.3 p.24 #210
Z: 2016 John Chambers <jc:trillian.mit.edu>
M: C
L: 1/8
K: A
uc |\
E<E E>F E>FA>E | F<B B>c B2 (A/B/c) |\
E<E E>F E>FA>E | F<A A>B A3 ::\
uc |\
d>ef>d c>de>c | d<c B<A (c<B) (B<c) |\
E<E E>F E>FA>E | F<A A>B A3 :|

%%sep 1 1 500
%%sep 1 1 500

